Catalina-dark/actions/22/tools-report-bug.svg

<svg xmlns="http://www.w3.org/2000/svg" viewBox="0 0 22 22">
  <defs id="defs3051">
    <style type="text/css" id="current-color-scheme">
      .ColorScheme-Text {
        color:#f2f2f2
      }
      </style>
  </defs>
 <path 
     style="fill:currentColor;fill-opacity:1;stroke:none"      
	 class="ColorScheme-Text"
        d="M 11 3.3417969 A 7.6575441 7.6575437 0 0 0 3.3417969 11 A 7.6575441 7.6575437 0 0 0 11 18.658203 A 7.6575441 7.6575437 0 0 0 18.658203 11 A 7.6575441 7.6575437 0 0 0 11 3.3417969 z M 8.3359375 7.1113281 C 8.9814315 7.1113281 9.5058594 7.63545 9.5058594 8.28125 C 9.5058594 8.92735 8.9814315 9.4511719 8.3359375 9.4511719 C 7.6902555 9.4511719 7.1660156 8.92735 7.1660156 8.28125 C 7.1660156 7.63555 7.6902555 7.1113281 8.3359375 7.1113281 z M 13.638672 7.1113281 C 14.284165 7.1113281 14.806641 7.63545 14.806641 8.28125 C 14.806641 8.92735 14.284354 9.4511719 13.638672 9.4511719 C 12.99299 9.4511719 12.46875 8.92735 12.46875 8.28125 C 12.46875 7.63555 12.99299 7.1113281 13.638672 7.1113281 z M 10.998047 11.568359 C 12.89964 11.568359 14.597571 12.652325 15.322266 14.328125 C 15.446348 14.614825 15.313979 14.946013 15.027344 15.070312 C 14.74071 15.194513 14.407286 15.062191 14.283203 14.775391 C 13.737843 13.513891 12.448191 12.699219 10.998047 12.699219 C 9.5143346 12.699219 8.2170334 13.514591 7.6933594 14.775391 C 7.6030314 14.993191 7.39364 15.123047 7.171875 15.123047 C 7.099462 15.123047 7.0259781 15.109078 6.9550781 15.080078 C 6.6663661 14.960178 6.5285035 14.630097 6.6484375 14.341797 C 7.3480525 12.657397 9.0555316 11.568359 10.998047 11.568359 z "
     />
</svg>

<svg viewBox="0 0 22 22" xmlns="http://www.w3.org/2000/svg">
<defs>
<style id="current-color-scheme" type="text/css">.ColorScheme-Text {
        color:#dedede
      }</style>
</defs>
<path class="ColorScheme-Text" d="m11 3.3418a7.6575 7.6575 0 0 0-7.6582 7.6582 7.6575 7.6575 0 0 0 7.6582 7.6582 7.6575 7.6575 0 0 0 7.6582-7.6582 7.6575 7.6575 0 0 0-7.6582-7.6582zm-2.6641 3.7695c0.64549 0 1.1699 0.52412 1.1699 1.1699 0 0.6461-0.52443 1.1699-1.1699 1.1699-0.64568 0-1.1699-0.52382-1.1699-1.1699 0-0.6457 0.52424-1.1699 1.1699-1.1699zm5.3027 0c0.64549 0 1.168 0.52412 1.168 1.1699 0 0.6461-0.52229 1.1699-1.168 1.1699s-1.1699-0.52382-1.1699-1.1699c0-0.6457 0.52424-1.1699 1.1699-1.1699zm-2.6406 4.457c1.9016 0 3.5995 1.084 4.3242 2.7598 0.12408 0.2867-0.008287 0.61789-0.29492 0.74219-0.28663 0.1242-0.62006-0.008121-0.74414-0.29492-0.54536-1.2615-1.835-2.0762-3.2852-2.0762-1.4837 0-2.781 0.81537-3.3047 2.0762-0.090328 0.2178-0.29972 0.34766-0.52148 0.34766-0.072413 0-0.1459-0.013969-0.2168-0.042969-0.28871-0.1199-0.42657-0.44998-0.30664-0.73828 0.69962-1.6844 2.4071-2.7734 4.3496-2.7734z" fill="currentColor"/>
</svg>
